public/images/flags/CZ.svg

<svg width="21" height="15" viewBox="0 0 21 15" fill="none" xmlns="http://www.w3.org/2000/svg">
<path d="M20 7V2C20 1.73478 19.8946 1.48043 19.7071 1.29289C19.5196 1.10536 19.2652 1 19 1H2C1.88871 1.0034 1.77881 1.02572 1.675 1.066L11 7H20ZM0.664993 14.48C0.839802 14.6394 1.04163 14.7664 1.261 14.855C1.04205 14.7662 0.8406 14.6392 0.666 14.48H0.664993Z" fill="#F6F9FC"/>
<path opacity="0.2" d="M0.664993 14.48C0.839802 14.6394 1.04163 14.7664 1.261 14.855C1.04205 14.7662 0.8406 14.6392 0.666 14.48H0.664993Z" fill="#8898AA"/>
<path d="M19 0H2C1.52596 0.00187309 1.06829 0.17359 0.710007 0.484001C0.756575 0.497802 0.801762 0.515876 0.845001 0.537998L1.675 1.066C1.77881 1.02572 1.88871 1.0034 2 1H19C19.2652 1 19.5196 1.10536 19.7071 1.29289C19.8946 1.48043 20 1.73478 20 2V7H21V2C21 1.46957 20.7893 0.960858 20.4142 0.585785C20.0391 0.210712 19.5304 0 19 0Z" fill="#F6F9FC"/>
<path opacity="0.2" d="M19 0H2C1.52596 0.00187309 1.06829 0.17359 0.710007 0.484001C0.756575 0.497802 0.801762 0.515876 0.845001 0.537998L1.675 1.066C1.77881 1.02572 1.88871 1.0034 2 1H19C19.2652 1 19.5196 1.10536 19.7071 1.29289C19.8946 1.48043 20 1.73478 20 2V7H21V2C21 1.46957 20.7893 0.960858 20.4142 0.585785C20.0391 0.210712 19.5304 0 19 0Z" fill="#8898AA"/>
<path d="M1.995 15H2C1.74668 14.9992 1.49585 14.95 1.261 14.855C1.49413 14.9499 1.7433 14.9991 1.995 15ZM19 15H19.005C19.2674 15.0005 19.5273 14.9492 19.7698 14.8489C20.0123 14.7487 20.2325 14.6015 20.4179 14.4158C20.6033 14.2301 20.7502 14.0096 20.8501 13.767C20.95 13.5244 21.0009 13.2644 21 13.002V13C21 13.5304 20.7893 14.0391 20.4142 14.4142C20.0391 14.7893 19.5304 15 19 15Z" fill="#E25950"/>
<path d="M20 7H11L1.54401 13.877L0.809006 14.412C0.763748 14.4391 0.715827 14.4616 0.666 14.479C1.03019 14.8129 1.50594 14.9987 2 15H19C19.5304 15 20.0391 14.7893 20.4142 14.4142C20.7893 14.0391 21 13.5304 21 13V7H20Z" fill="#E25950"/>
<path d="M0.0399933 13.403C0.0319933 13.363 0.0339999 13.318 0.0279999 13.275C0.0339999 13.318 0.0320004 13.362 0.0410004 13.403H0.0399933ZM0.0749969 13.514C0.174009 13.8863 0.378964 14.2219 0.664993 14.48C0.379143 14.2218 0.174222 13.8862 0.0749969 13.514ZM0 13V13.002C0.00293346 13.0935 0.0122897 13.1848 0.0279999 13.275C0.0122357 13.1841 0.00287946 13.0922 0 13ZM0.0749969 13.514C0.064997 13.477 0.0490004 13.442 0.0410004 13.404C0.0490004 13.442 0.064997 13.477 0.0749969 13.514Z" fill="#43458B"/>
<path d="M1.675 1.066L0.845001 0.537998C0.801441 0.515819 0.75591 0.497744 0.709 0.484001C0.487614 0.66987 0.309471 0.901825 0.187012 1.16367C0.0645526 1.42551 0.000729776 1.71094 0 2V13C0.00287946 13.0922 0.0122357 13.1841 0.0279999 13.275C0.0339999 13.318 0.0320004 13.362 0.0410004 13.403C0.0490004 13.442 0.064997 13.477 0.0749969 13.514C0.174676 13.886 0.379946 14.2212 0.666 14.479C0.715827 14.4616 0.763748 14.4391 0.809006 14.412L1.54401 13.877L11 7L1.675 1.066Z" fill="#43458B"/>
</svg>

<svg width="21" height="15" fill="none" xmlns="http://www.w3.org/2000/svg"><path d="M20 7V2a1 1 0 0 0-1-1H2a.981.981 0 0 0-.325.066L11 7h9zM.665 14.48a1.991 1.991 0 0 0 .001 0H.665z" fill="#F6F9FC"/><path opacity=".2" d="M.665 14.48a1.991 1.991 0 0 0 .001 0H.665z" fill="#8898AA"/><path d="M19 0H2A1.982 1.982 0 0 0 .71.484a.788.788 0 0 1 .135.054l.83.528A.981.981 0 0 1 2 1h17a1 1 0 0 1 1 1v5h1V2a2 2 0 0 0-2-2z" fill="#F6F9FC"/><path opacity=".2" d="M19 0H2A1.982 1.982 0 0 0 .71.484a.788.788 0 0 1 .135.054l.83.528A.981.981 0 0 1 2 1h17a1 1 0 0 1 1 1v5h1V2a2 2 0 0 0-2-2z" fill="#8898AA"/><path d="M1.995 15H2a1.987 1.987 0 0 1-.005 0zM19 15h.005A1.991 1.991 0 0 0 21 13.002V13a2 2 0 0 1-2 2z" fill="#E25950"/><path d="M20 7h-9l-9.456 6.877-.735.535a.777.777 0 0 1-.143.067c.364.334.84.52 1.334.521h17a2 2 0 0 0 2-2V7h-1z" fill="#E25950"/><path d="M.04 13.403c-.008-.04-.006-.085-.012-.128.006.043.004.087.013.128H.04zm.035.111zM0 13v.002A1.957 1.957 0 0 0 0 13zm.075.514c-.01-.037-.026-.072-.034-.11.008.038.024.073.034.11z" fill="#43458B"/><path d="M1.675 1.066L.845.538A.788.788 0 0 0 .709.484 1.986 1.986 0 0 0 0 2v11c.003.092.012.184.028.275.006.043.004.087.013.128.008.039.024.074.034.111.1.372.305.707.591.965a.777.777 0 0 0 .143-.067l.735-.535L11 7 1.675 1.066z" fill="#43458B"/></svg>
